icons/bus-15.svg

<?xml version="1.0" encoding="utf-8"?>
<!-- Generator: Adobe Illustrator 19.2.1, SVG Export Plug-In . SVG Version: 6.00 Build 0)  -->
<!DOCTYPE svg PUBLIC "-//W3C//DTD SVG 1.1//EN" "http://www.w3.org/Graphics/SVG/1.1/DTD/svg11.dtd">
<svg version="1.1"
	 id="svg4619" inkscape:version="0.91+devel+osxmenu r12911" sodipodi:docname="bus-15.svg" xmlns:cc="http://creativecommons.org/ns#" xmlns:dc="http://purl.org/dc/elements/1.1/" xmlns:inkscape="http://www.inkscape.org/namespaces/inkscape" xmlns:rdf="http://www.w3.org/1999/02/22-rdf-syntax-ns#" xmlns:sodipodi="http://sodipodi.sourceforge.net/DTD/sodipodi-0.dtd" xmlns:svg="http://www.w3.org/2000/svg"
	 xmlns="http://www.w3.org/2000/svg" xmlns:xlink="http://www.w3.org/1999/xlink" x="0px" y="0px" width="15px" height="15px"
	 viewBox="0 0 15 15" style="enable-background:new 0 0 15 15;" xml:space="preserve">
<path id="path8043" d="M4,0C2.6364,0,1,0.7433,1,2.7461v5.4531V12c0,0,0,1,1,1v1c0,0,0,1,1,1s1-1,1-1v-1h7v1c0,0,0,1,1,1s1-1,1-1v-1
	c0,0,1,0,1-1V2.7461C14,0.7006,12.764,0,11.4004,0H4z M4.25,1.5h6.5C10.8885,1.5,11,1.6115,11,1.75S10.8885,2,10.75,2h-6.5
	C4.1115,2,4,1.8885,4,1.75S4.1115,1.5,4.25,1.5z M3,3h9c1,0,1,0.9668,1,0.9668V7c0,0,0,1-1,1H3C2,8,2,7,2,7V4C2,4,2,3,3,3z M3,10
	c0.5523,0,1,0.4477,1,1s-0.4477,1-1,1s-1-0.4477-1-1S2.4477,10,3,10z M12,10c0.5523,0,1,0.4477,1,1s-0.4477,1-1,1s-1-0.4477-1-1
	S11.4477,10,12,10z"/>
</svg>

<?xml version="1.0" encoding="UTF-8" standalone="no"?>
<!-- Created with Inkscape (http://www.inkscape.org/) -->

<svg
   xmlns:dc="http://purl.org/dc/elements/1.1/"
   xmlns:cc="http://creativecommons.org/ns#"
   xmlns:rdf="http://www.w3.org/1999/02/22-rdf-syntax-ns#"
   xmlns:svg="http://www.w3.org/2000/svg"
   xmlns="http://www.w3.org/2000/svg"
   xmlns:sodipodi="http://sodipodi.sourceforge.net/DTD/sodipodi-0.dtd"
   xmlns:inkscape="http://www.inkscape.org/namespaces/inkscape"
   version="1.1"
   width="15"
   height="15"
   id="svg4619"
   inkscape:version="0.91+devel+osxmenu r12911"
   sodipodi:docname="bus-15.svg"
   viewBox="0 0 15 15">
  <path
     style="opacity:1;fill:#000000;fill-opacity:1;stroke:none;stroke-width:0.99999994;stroke-linecap:round;stroke-linejoin:miter;stroke-miterlimit:4;stroke-dasharray:none;stroke-dashoffset:0;stroke-opacity:1"
     d="M 4 0 C 2.6363641 0 1 0.74325356 1 2.7460938 L 1 8.1992188 L 1 12 C 1 12 0.99999997 13 2 13 L 2 14 C 2 14 2 15 3 15 C 4 15 4 14 4 14 L 4 13 L 11 13 L 11 14 C 11 14 11 15 12 15 C 13 15 13 14 13 14 L 13 13 C 13 13 14 13 14 12 L 14 2.7460938 C 14 0.70063977 12.764026 2.9605947e-16 11.400391 0 L 4 0 z M 4.25 1.5 L 10.75 1.5 C 10.8885 1.5 11 1.6115 11 1.75 C 11 1.8885 10.8885 2 10.75 2 L 4.25 2 C 4.1115 2 4 1.8885 4 1.75 C 4 1.6115 4.1115 1.5 4.25 1.5 z M 3 3 L 12 3 C 13 3 13 3.9667969 13 3.9667969 L 13 7 C 13 7 13 8 12 8 L 3 8 C 2 8 2 7 2 7 L 2 4 C 2 4 2 3 3 3 z M 3 10 A 1 1 0 0 1 4 11 A 1 1 0 0 1 3 12 A 1 1 0 0 1 2 11 A 1 1 0 0 1 3 10 z M 12 10 A 1 1 0 0 1 13 11 A 1 1 0 0 1 12 12 A 1 1 0 0 1 11 11 A 1 1 0 0 1 12 10 z "
     id="path8043" />
</svg>
